X: 1
T: Bridge End
M: 3/2
L: 1/8
R: three-two
K: Dmaj
|: D2  AF  AF  EB  BA  Bd |  D2  AF  Ad  ef  dB  AF |D2  AF  AF  EB  BA  Bd |
D2  AF  Ad  ef  dB  AB |d>f  af  dA  Be  dB  AB | df   af   ed  Be  ef  e2 |
df  af  ed  Be  dB  AB |1 df  bf   af   ef  dB  AF :|2 df  bf  af  ef  dB  AF | D4  ||
